dist/svgs/crypto-icons/icons/mrc.svg

<?xml version="1.0" encoding="UTF-8" standalone="yes"?>
<svg xmlns="http://www.w3.org/2000/svg" xmlns:xlink="http://www.w3.org/1999/xlink" width="512px" height="512px" viewBox="0 0 384 384" version="1.1">
  <g id="surface1">
    <path style=" stroke:none;fill-rule:nonzero;fill:rgb(0%,0%,0%);fill-opacity:1;" d="M 191.824219 0 C 85.882812 0 0 85.882812 0 191.824219 C 0 297.757812 85.882812 383.648438 191.824219 383.648438 C 297.769531 383.648438 383.652344 297.761719 383.652344 191.824219 C 383.652344 85.882812 297.769531 0 191.824219 0 Z M 265.800781 144.980469 C 250.273438 120.507812 222.957031 104.25 191.824219 104.25 C 143.460938 104.25 104.25 143.457031 104.25 191.824219 C 104.25 225.785156 123.601562 255.222656 151.871094 269.742188 L 151.871094 153.636719 L 174.859375 153.636719 L 174.859375 213.027344 C 175.078125 216.230469 177.023438 230.691406 194.441406 230.691406 C 210.117188 230.691406 211.765625 215.839844 211.902344 211.289062 L 211.898438 153.632812 L 234.886719 153.632812 L 234.886719 211.535156 C 234.652344 228.574219 223.6875 253.683594 194.441406 253.683594 C 186.714844 253.683594 180.238281 252.105469 174.859375 249.527344 L 174.859375 277.738281 C 180.351562 278.816406 186.019531 279.394531 191.824219 279.394531 C 220.550781 279.394531 246.050781 265.558594 262.015625 244.195312 L 314.722656 283.179688 C 286.8125 320.667969 242.160156 344.957031 191.824219 344.957031 C 107.25 344.957031 38.6875 276.394531 38.6875 191.824219 C 38.6875 107.246094 107.25 38.6875 191.824219 38.6875 C 245.914062 38.6875 293.417969 66.753906 320.660156 109.089844 Z M 265.800781 144.980469 "/>
  </g>
</svg>

<svg xmlns="http://www.w3.org/2000/svg" viewBox="0 0 384 384"><path d="M191.824 0C85.883 0 0 85.883 0 191.824c0 105.934 85.883 191.824 191.824 191.824 105.946 0 191.828-85.886 191.828-191.824C383.652 85.883 297.77 0 191.824 0zm73.977 144.98c-15.528-24.472-42.844-40.73-73.977-40.73-48.363 0-87.574 39.207-87.574 87.574 0 33.961 19.352 63.399 47.621 77.918V153.637h22.988v59.39c.22 3.203 2.164 17.664 19.582 17.664 15.676 0 17.325-14.851 17.461-19.402l-.004-57.656h22.989v57.902c-.235 17.04-11.2 42.149-40.446 42.149-7.726 0-14.203-1.579-19.582-4.157v28.211a87.975 87.975 0 0016.965 1.657c28.727 0 54.227-13.836 70.192-35.2l52.707 38.985c-27.91 37.488-72.563 61.777-122.899 61.777-84.574 0-153.137-68.562-153.137-153.133 0-84.578 68.563-153.137 153.137-153.137 54.09 0 101.594 28.067 128.836 70.403zm0 0"/></svg>
